X: 21262
M: C
L: 1/16
K: Bb
f3B edcB f2B2eg3 | f3B edcB A2c2A3F |
f3B edcB f2B2d2f2 | eg3df3 c3BA2F2 |\
f3B edcB f2B2e2g2 | f3B edcB ABcB A2F2 |\
f3B edcB f2B2d2f2 | eg3db3 c3BA2F2 !segno!|]


